!!!COM: Fux, Johann Joseph
!!!OMD: Gradus ad Parnassum Exercise
!!!YEC: CC0 1.0 Universal (Public Domain). Mark Gotham and FourScoreAndMore.org waive all rights to this document.
**kern	**kern	**kern	**kern
*part4	*part3	*part2	*part1
*staff4	*staff3	*staff2	*staff1
*I"4	*I"3	*I"2	*I"1
*I'Pno	*I'Pno	*I'Pno	*I'Pno
!!LO:LB:g=z
*clefF4	*clefGv2	*clefG2	*clefG2
*k[]	*k[]	*k[]	*k[]
!!LO:TX:omd:t=
*M4/4	*M4/4	*M4/4	*M4/4
=273	=273	=273	=273
!	!	!	!LO:TX:a:t=Fig. 196; Species&colon; 4; Modal final&colon; d; Cantus firmus&colon; 1
1D	1F	2r	1d
.	.	[2A/	.
=274	=274	=274	=274
1D	1A	2A/]	1f
.	.	[2d/	.
=275	=275	=275	=275
1AA	1A	2d/]	1e
.	.	[2c/	.
=276	=276	=276	=276
1BB	1D	2c/]	1d
.	.	[2B/	.
=277	=277	=277	=277
1GG	1d	2B/]	1g
.	.	[2d/	.
=278	=278	=278	=278
1D	1d	2d/]	1f
.	.	[2A/	.
=279	=279	=279	=279
1F	1c	2A/]	1a
.	.	[2f/	.
=280	=280	=280	=280
1C	1c	2f/]	1g
.	.	[2e/	.
=281	=281	=281	=281
1D	1A	2e/]	1f
.	.	[2d/	.
=282	=282	=282	=282
1AA	1A	2d/]	1e
.	.	2c#X/	.
=283	=283	=283	=283
1D	1A	1d	1d
==	==	==	==
*-	*-	*-	*-
!!!software: music21 v.9.7.1
!!!software: music21 v.9.7.1
!!!software: MuseScore 3.4.2
!!!RDF**kern: > = above
!!!RDF**kern: < = below
